outputs/icons/communication/missed_call_round.svg

<svg xmlns="http://www.w3.org/2000/svg" width="1250" height="1200" fill="none"><path fill="#1D1E23" d="M1107.5 192.75c-9.75-9.75-25.5-9.75-35.25 0L950 314.75 827.75 192.5c-9.75-9.75-25.5-9.75-35.25 0s-9.75 25.5 0 35.25L914.75 350 792.5 472.25c-9.75 9.75-9.75 25.5 0 35.25s25.5 9.75 35.25 0L950 385.25l122.25 122.25c9.75 9.75 25.5 9.75 35.25 0s9.75-25.5 0-35.25L985.25 350l122.25-122.25c9.5-9.5 9.5-25.5 0-35"/><path fill="#1D1E23" d="m674.065 870.43 130.61-129.575c11.92-11.92 29.545-17.105 46.645-13.475l190.215 37.835C1065.38 769.88 1083 791.13 1083 816.01v215.09c0 29.025-24.36 53.385-53.385 51.83-149.785-8.81-290.245-54.94-413.08-125.945-140.976-81.89-258.629-199.025-340.519-340.52-71.524-122.836-117.134-263.293-125.946-413.08C148.516 174.36 172.876 150 201.9 150h215.092c24.878 0 46.128 17.622 50.793 41.464l38.87 190.732c3.11 17.104-2.07 34.207-13.992 46.647L363.09 559.45a836.7 836.7 0 0 0 310.975 310.98"/></svg>

<svg width="1250" height="1200" viewBox="0 0 1250 1200" fill="none" xmlns="http://www.w3.org/2000/svg"><path d="M1107.5 192.75C1097.75 183 1082 183 1072.25 192.75L950 314.75L827.75 192.5C818 182.75 802.25 182.75 792.5 192.5C782.75 202.25 782.75 218 792.5 227.75L914.75 350L792.5 472.25C782.75 482 782.75 497.75 792.5 507.5C802.25 517.25 818 517.25 827.75 507.5L950 385.25L1072.25 507.5C1082 517.25 1097.75 517.25 1107.5 507.5C1117.25 497.75 1117.25 482 1107.5 472.25L985.25 350L1107.5 227.75C1117 218.25 1117 202.25 1107.5 192.75Z" fill="#1D1E23"/><path d="M674.065 870.43L804.675 740.855C816.595 728.935 834.22 723.75 851.32 727.38L1041.535 765.215C1065.38 769.88 1083 791.13 1083 816.01V1031.1C1083 1060.125 1058.64 1084.485 1029.615 1082.93C879.83 1074.12 739.37 1027.99 616.535 956.985C475.559 875.095 357.906 757.96 276.016 616.465C204.492 493.629 158.882 353.172 150.07 203.385C148.516 174.36 172.876 150 201.9 150H416.992C441.87 150 463.12 167.622 467.785 191.464L506.655 382.196C509.765 399.3 504.585 416.403 492.663 428.843L363.09 559.45C437.205 689.025 544.49 796.315 674.065 870.43Z" fill="#1D1E23"/></svg>
